X:59
T: Spottlied auf den 1574 aus Krakau entflohenen Polenkoenig
N: A0412
O: Europa, Mitteleuropa, Deutschland
N: Werlin 1646 S. 2292.
R: Romanze, Ballade, Lied, Kriegslied
M: 4/4
L: 1/4
K: G
D | GGAA | B2A
A | BGGF | G2z
D | GGAA | B2A
A | BGGF | G2z
B | BBAA | BBA
A | BBAA | BBA2 | zABG | GFG

@@@ Tune index: 372
